src/config/img/GiveUp.svg

<svg width="110" height="135" viewBox="0 0 110 135" fill="none" xmlns="http://www.w3.org/2000/svg">
<path d="M106.555 8.30436C104.693 7.16192 102.354 7.08227 100.408 8.09084C95.4446 10.6604 90.5609 12.7861 81.1326 12.7861C70.7585 12.7861 65.8749 10.2125 60.213 7.23303C53.9776 3.95219 46.9137 0.231873 33.447 0.231873C24.1275 0.231873 17.9006 2.01452 12.8704 4.1906C11.9456 1.87638 9.69428 0.231873 7.04529 0.231873C3.58026 0.231873 0.768066 3.0398 0.768066 6.50909V127.868C0.768066 131.337 3.58026 134.145 7.04529 134.145C10.5103 134.145 13.3225 131.337 13.3225 127.868V76.5036C18.6539 73.7081 23.5711 71.3731 33.4472 71.3731C43.817 71.3731 48.7048 73.9469 54.3627 76.9264C60.5979 80.2072 67.6576 83.9275 81.1326 83.9275C93.3649 83.9275 100.215 80.9144 106.179 77.8302C108.267 76.7506 109.572 74.5995 109.572 72.2519V13.6651C109.572 11.4764 108.43 9.44254 106.555 8.30436ZM97.018 68.3266C93.0173 70.0968 88.4434 71.3731 81.1324 71.3731C70.7583 71.3731 65.8747 68.7995 60.2128 65.82C53.9774 62.5392 46.9135 58.8188 33.447 58.8188C24.412 58.8188 18.2772 60.4886 13.3223 62.5769V17.9168C18.6537 15.1213 23.5709 12.7863 33.447 12.7863C43.8168 12.7863 48.7047 15.3599 54.3625 18.3394C60.5977 21.6203 67.6574 25.3406 81.1324 25.3406C87.7735 25.3406 92.8288 24.4534 97.018 23.1478V68.3266Z" fill="#1DA1AF"/>
</svg>

<svg width="110" height="135" fill="none" xmlns="http://www.w3.org/2000/svg"><path d="M106.555 8.304a6.262 6.262 0 0 0-6.147-.213c-4.963 2.57-9.847 4.695-19.275 4.695-10.374 0-15.258-2.573-20.92-5.553-6.235-3.28-13.3-7.001-26.766-7.001-9.32 0-15.546 1.783-20.577 3.959C11.946 1.876 9.694.23 7.045.23A6.277 6.277 0 0 0 .768 6.51v121.359a6.277 6.277 0 1 0 12.555 0V76.504c5.33-2.796 10.248-5.13 20.124-5.13 10.37 0 15.258 2.573 20.916 5.552 6.235 3.281 13.295 7.001 26.77 7.001 12.232 0 19.082-3.013 25.046-6.097a6.275 6.275 0 0 0 3.393-5.578V13.665a6.272 6.272 0 0 0-3.017-5.36zm-9.537 60.023c-4 1.77-8.575 3.046-15.886 3.046-10.374 0-15.257-2.574-20.92-5.553-6.235-3.28-13.299-7.001-26.765-7.001-9.035 0-15.17 1.67-20.125 3.758v-44.66c5.332-2.796 10.249-5.13 20.125-5.13 10.37 0 15.258 2.573 20.915 5.552 6.236 3.281 13.295 7.002 26.77 7.002 6.641 0 11.697-.888 15.886-2.193v45.179z" fill="#1DA1AF"/></svg>
